;FLAVOR:Marlin
;TIME:24978
;Filament used: 37.8769m
;Layer height: 0.3
;Generated with Cura_SteamEngine 3.0.3
M190 S60
M104 S210
M109 S210
M82 ; absolute extrusion mode
G21 ;metric values
G90 ;absolute Positioning
G28 ; home all axes
G1 Z5 F3000 ; lift
G1 X20 Y2 F1500 ; avoid binder clips
G1 Z0.2 F3000 ; get ready to prime
G92 E0 ; reset extrusion distance
G1 X120 E10 F600 ; prime nozzle
G1 X150 F5000 ; quick wipe
;LAYER_COUNT:17
;LAYER:0
M107
M204 S5000
M205 X30 Y30
G0 F3000 X65.855 Y54.496 Z0.2
M204 S500
M205 X20 Y20
;TYPE:SKIRT
G1 F900 X66.441 Y53.966 E0.05256
G1 X67.078 Y53.499 E0.1051
G1 X67.758 Y53.098 E0.15761
G1 X68.476 Y52.768 E0.21018
G1 X69.223 Y52.513 E0.26268
G1 X69.992 Y52.334 E0.31521
G1 X70.775 Y52.234 E0.36771
G1 X71.371 Y52.211 E0.40739
G1 X247.491 Y52.21 E12.12294
G1 X248.28 Y52.25 E12.17549
G1 X249.06 Y52.369 E12.22798
G1 X249.825 Y52.567 E12.28054
G1 X250.565 Y52.841 E12.33303
G1 X251.274 Y53.189 E12.38557
G1 X251.945 Y53.606 E12.43812
G1 X252.569 Y54.09 E12.49065
G1 X253.142 Y54.633 E12.54317
G1 X253.657 Y55.232 E12.59571
G1 X254.108 Y55.88 E12.64823
G1 X254.492 Y56.571 E12.70082
G1 X254.804 Y57.296 E12.75332
G1 X255.041 Y58.049 E12.80583
G1 X255.2 Y58.823 E12.8584
G1 X255.281 Y59.608 E12.91089
G1 X255.291 Y60.01 E12.93764
G1 X255.291 Y239.991 E24.91003
G1 X255.251 Y240.78 E24.96258
G1 X255.132 Y241.56 E25.01506
G1 X254.934 Y242.325 E25.06763
G1 X254.66 Y243.065 E25.12012
G1 X254.312 Y243.774 E25.17266
G1 X253.894 Y244.445 E25.22525
G1 X253.411 Y245.069 E25.27774
G1 X252.868 Y245.642 E25.33025
G1 X252.269 Y246.157 E25.3828
G1 X251.621 Y246.608 E25.43531
G1 X250.93 Y246.992 E25.4879
G1 X250.205 Y247.304 E25.5404
G1 X249.452 Y247.541 E25.59292
G1 X248.678 Y247.7 E25.64548
G1 X247.893 Y247.781 E25.69797
G1 X247.491 Y247.791 E25.72472
G1 X71.374 Y247.79 E37.44007
G1 X70.585 Y247.75 E37.49262
G1 X69.805 Y247.631 E37.54511
G1 X69.04 Y247.433 E37.59768
G1 X68.3 Y247.159 E37.65017
G1 X67.591 Y246.811 E37.7027
G1 X66.92 Y246.393 E37.75529
G1 X66.296 Y245.91 E37.80778
G1 X65.859 Y245.506 E37.84737
G1 X46.998 Y226.648 E39.62156
G1 X46.469 Y226.062 E39.67407
G1 X46.001 Y225.426 E39.7266
G1 X45.6 Y224.745 E39.77917
G1 X45.27 Y224.028 E39.83167
G1 X45.015 Y223.28 E39.88424
G1 X44.836 Y222.511 E39.93676
G1 X44.736 Y221.728 E39.98927
G1 X44.715 Y220.939 E40.04177
G1 X44.775 Y220.151 E40.09434
G1 X44.914 Y219.374 E40.14685
G1 X45.13 Y218.614 E40.19941
G1 X45.423 Y217.881 E40.25192
G1 X45.788 Y217.181 E40.30443
G1 X46.222 Y216.521 E40.35698
G1 X46.93 Y215.684 E40.4299
G1 X49.285 Y213.271 E40.65419
G1 X52.762 Y209.369 E41.00185
G1 X56.014 Y205.275 E41.34965
G1 X59.013 Y201.026 E41.69561
G1 X61.783 Y196.589 E42.04355
G1 X64.288 Y192.02 E42.39016
G1 X66.527 Y187.325 E42.73617
G1 X68.509 Y182.482 E43.08426
G1 X70.204 Y177.562 E43.43042
G1 X71.639 Y172.483 E43.7815
G1 X72.229 Y170.001 E43.95121
G1 X72.742 Y167.513 E44.12019
G1 X73.597 Y162.29 E44.47225
G1 X74.144 Y157.132 E44.81729
G1 X74.4 Y151.907 E45.16527
G1 X74.361 Y146.693 E45.51212
G1 X74.026 Y141.485 E45.85927
G1 X73.399 Y136.321 E46.20531
G1 X72.468 Y131.118 E46.55691
G1 X71.934 Y128.724 E46.72007
G1 X70.558 Y123.595 E47.07332
G1 X68.924 Y118.643 E47.4202
G1 X67.016 Y113.8 E47.76645
G1 X64.826 Y109.048 E48.11451
G1 X62.39 Y104.463 E48.45988
G1 X59.68 Y99.994 E48.80755
G1 X56.729 Y95.694 E49.15447
G1 X53.546 Y91.578 E49.50058
G1 X50.103 Y87.609 E49.8501
G1 X46.897 Y84.281 E50.15749
G1 X46.379 Y83.685 E50.21002
G1 X45.923 Y83.04 E50.26256
G1 X45.535 Y82.353 E50.31505
G1 X45.219 Y81.629 E50.36759
G1 X44.977 Y80.877 E50.42014
G1 X44.813 Y80.105 E50.47264
G1 X44.727 Y79.32 E50.52517
G1 X44.721 Y78.53 E50.57773
G1 X44.796 Y77.744 E50.63025
G1 X44.949 Y76.969 E50.6828
G1 X45.18 Y76.214 E50.73532
G1 X45.486 Y75.486 E50.78785
G1 X45.864 Y74.793 E50.84036
G1 X46.31 Y74.141 E50.89291
G1 X46.998 Y73.354 E50.96244
G1 X65.855 Y54.496 E52.73644
M204 S5000
M205 X30 Y30
G0 F3000 X66.421 Y55.061
M204 S500
M205 X20 Y20
G1 F900 X66.978 Y54.561 E52.78623
G1 X67.584 Y54.124 E52.83593
G1 X68.234 Y53.753 E52.88572
G1 X68.92 Y53.454 E52.9355
G1 X69.633 Y53.23 E52.98521
G1 X70.367 Y53.083 E53.03501
G1 X71.371 Y53.011 E53.10196
G1 X247.491 Y53.01 E64.81751
G1 X248.238 Y53.05 E64.86727
G1 X248.976 Y53.169 E64.917
G1 X249.698 Y53.367 E64.9668
G1 X250.394 Y53.64 E65.01653
G1 X251.057 Y53.987 E65.06631
G1 X251.68 Y54.402 E65.11611
G1 X252.254 Y54.881 E65.16584
G1 X252.775 Y55.418 E65.21561
G1 X253.234 Y56.008 E65.26533
G1 X253.629 Y56.644 E65.31514
G1 X253.953 Y57.318 E65.36488
G1 X254.203 Y58.023 E65.41464
G1 X254.377 Y58.751 E65.46443
G1 X254.472 Y59.493 E65.51419
G1 X254.491 Y60.01 E65.54861
G1 X254.491 Y239.991 E77.52099
G1 X254.451 Y240.738 E77.57075
G1 X254.332 Y241.476 E77.62048
G1 X254.134 Y242.198 E77.67028
G1 X253.861 Y242.894 E77.72001
G1 X253.514 Y243.557 E77.76979
G1 X253.099 Y244.18 E77.81959
G1 X252.62 Y244.754 E77.86932
G1 X252.083 Y245.275 E77.91909
G1 X251.493 Y245.734 E77.96881
G1 X250.857 Y246.129 E78.01861
G1 X250.183 Y246.453 E78.06836
G1 X249.478 Y246.703 E78.11812
G1 X248.75 Y246.877 E78.16791
G1 X248.008 Y246.972 E78.21767
G1 X247.491 Y246.991 E78.25208
G1 X71.374 Y246.99 E89.96744
G1 X70.627 Y246.95 E90.0172
G1 X69.889 Y246.831 E90.06692
G1 X69.167 Y246.633 E90.11672
G1 X68.471 Y246.36 E90.16646
G1 X67.808 Y246.013 E90.21623
G1 X67.185 Y245.598 E90.26603
G1 X66.425 Y244.94 E90.3329
G1 X47.564 Y226.082 E92.10709
G1 X47.064 Y225.526 E92.15683
G1 X46.626 Y224.919 E92.20662
G1 X46.255 Y224.269 E92.2564
G1 X45.956 Y223.584 E92.30612
G1 X45.732 Y222.87 E92.3559
G1 X45.585 Y222.136 E92.4057
G1 X45.518 Y221.391 E92.45545
G1 X45.53 Y220.643 E92.50522
G1 X45.622 Y219.901 E92.55495
G1 X45.793 Y219.173 E92.6047
G1 X46.04 Y218.467 E92.65445
G1 X46.362 Y217.791 E92.70426
G1 X46.753 Y217.154 E92.75398
G1 X47.211 Y216.562 E92.80377
G1 X47.503 Y216.243 E92.83254
G1 X49.857 Y213.83 E93.05678
G1 X53.379 Y209.878 E93.40891
G1 X56.646 Y205.765 E93.75832
G1 X59.686 Y201.459 E94.10895
G1 X62.471 Y196.996 E94.45889
G1 X65 Y192.385 E94.80872
G1 X67.264 Y187.636 E95.15869
G1 X69.251 Y182.782 E95.50758
G1 X70.967 Y177.803 E95.8579
G1 X72.415 Y172.675 E96.21236
G1 X73.015 Y170.153 E96.38481
G1 X73.53 Y167.656 E96.5544
G1 X74.387 Y162.415 E96.90767
G1 X74.942 Y157.185 E97.25752
G1 X75.2 Y151.922 E97.60804
G1 X75.161 Y146.67 E97.95741
G1 X74.822 Y141.409 E98.3081
G1 X74.189 Y136.19 E98.65781
G1 X73.254 Y130.969 E99.01064
G1 X72.711 Y128.531 E99.17679
G1 X71.325 Y123.364 E99.53265
G1 X69.679 Y118.377 E99.88199
G1 X67.749 Y113.477 E100.23231
G1 X65.552 Y108.71 E100.58147
G1 X63.078 Y104.052 E100.93232
G1 X60.352 Y99.558 E101.28196
G1 X57.376 Y95.223 E101.63173
G1 X54.16 Y91.063 E101.98151
G1 X50.709 Y87.085 E102.33182
G1 X47.473 Y83.726 E102.64209
G1 X46.984 Y83.16 E102.69184
G1 X46.557 Y82.546 E102.74159
G1 X46.199 Y81.889 E102.79136
G1 X45.913 Y81.198 E102.84111
G1 X45.702 Y80.48 E102.89089
G1 X45.569 Y79.744 E102.94064
G1 X45.515 Y78.998 E102.9904
G1 X45.541 Y78.25 E103.04018
G1 X45.647 Y77.51 E103.08991
G1 X45.832 Y76.785 E103.13968
G1 X46.092 Y76.083 E103.18948
G1 X46.426 Y75.414 E103.23922
G1 X46.829 Y74.784 E103.28897
G1 X47.298 Y74.201 E103.33874
G1 X47.564 Y73.919 E103.36453
G1 X66.421 Y55.061 E105.13853
M204 S5000
M205 X30 Y30
G0 F3000 X66.987 Y55.627
M204 S500
M205 X20 Y20
G1 F900 X67.512 Y55.158 E105.18536
G1 X68.087 Y54.752 E105.23218
G1 X68.704 Y54.414 E105.27898
G1 X69.356 Y54.148 E105.32582
G1 X70.034 Y53.957 E105.37268
G1 X70.729 Y53.844 E105.41951
G1 X71.371 Y53.811 E105.46228
G1 X247.491 Y53.81 E117.17783
G1 X248.194 Y53.85 E117.22467
G1 X248.888 Y53.969 E117.2715
G1 X249.563 Y54.167 E117.3183
G1 X250.212 Y54.439 E117.36511
G1 X250.826 Y54.784 E117.41196
G1 X251.397 Y55.195 E117.45876
G1 X251.918 Y55.669 E117.50561
G1 X252.382 Y56.199 E117.55247
G1 X252.782 Y56.778 E117.59928
G1 X253.114 Y57.399 E117.64612
G1 X253.374 Y58.053 E117.69294
G1 X253.558 Y58.733 E117.7398
G1 X253.664 Y59.429 E117.78663
G1 X253.691 Y60.01 E117.82532
G1 X253.691 Y239.991 E129.79771
G1 X253.651 Y240.694 E129.84454
G1 X253.532 Y241.388 E129.89138
G1 X253.334 Y242.063 E129.93818
G1 X253.062 Y242.712 E129.98499
G1 X252.717 Y243.326 E130.03184
G1 X252.306 Y243.897 E130.07864
G1 X251.832 Y244.418 E130.12549
G1 X251.302 Y244.882 E130.17235
G1 X250.723 Y245.282 E130.21916
G1 X250.102 Y245.614 E130.266
G1 X249.448 Y245.874 E130.31282
G1 X248.768 Y246.058 E130.35968
G1 X248.072 Y246.164 E130.40651
G1 X247.491 Y246.191 E130.4452
G1 X71.374 Y246.19 E142.16055
G1 X70.671 Y246.15 E142.20739
G1 X69.977 Y246.031 E142.25423
G1 X69.302 Y245.833 E142.30102
G1 X68.652 Y245.561 E142.34789
G1 X68.038 Y245.216 E142.39474
G1 X67.468 Y244.805 E142.44149
G1 X66.99 Y244.374 E142.4843
G1 X48.129 Y225.516 E144.25849
G1 X47.661 Y224.991 E144.30527
G1 X47.254 Y224.416 E144.35213
G1 X46.916 Y223.799 E144.39893
G1 X46.65 Y223.147 E144.44577
G1 X46.459 Y222.47 E144.49257
G1 X46.346 Y221.775 E144.5394
G1 X46.313 Y221.071 E144.58629
G1 X46.36 Y220.369 E144.63309
G1 X46.486 Y219.676 E144.67994
G1 X46.69 Y219.003 E144.72672
G1 X46.969 Y218.356 E144.77359
G1 X47.32 Y217.746 E144.82041
G1 X47.737 Y217.179 E144.86723
G1 X48.076 Y216.802 E144.90095
G1 X50.43 Y214.39 E145.12515
G1 X53.994 Y210.389 E145.48157
G1 X57.289 Y206.242 E145.83391
G1 X60.356 Y201.897 E146.18769
G1 X63.159 Y197.406 E146.53985
G1 X65.709 Y192.756 E146.89262
G1 X67.995 Y187.962 E147.24592
G1 X70.001 Y183.062 E147.59813
G1 X71.731 Y178.039 E147.95152
G1 X73.187 Y172.883 E148.30791
G1 X73.794 Y170.33 E148.48247
G1 X74.316 Y167.804 E148.65405
G1 X75.183 Y162.504 E149.0113
G1 X75.74 Y157.257 E149.36229
G1 X76.001 Y151.938 E149.71654
G1 X75.96 Y146.631 E150.06957
G1 X75.621 Y141.348 E150.42172
G1 X74.981 Y136.077 E150.77492
G1 X74.036 Y130.797 E151.13173
G1 X73.486 Y128.332 E151.29974
G1 X72.097 Y123.153 E151.65642
G1 X70.43 Y118.102 E152.01024
G1 X68.485 Y113.164 E152.36328
G1 X66.263 Y108.343 E152.7164
G1 X63.776 Y103.661 E153.06906
G1 X61.033 Y99.138 E153.42093
G1 X58.023 Y94.752 E153.77479
G1 X54.772 Y90.549 E154.12825
G1 X51.296 Y86.541 E154.48116
G1 X48.049 Y83.171 E154.79246
G1 X47.59 Y82.637 E154.8393
G1 X47.195 Y82.055 E154.88609
G1 X46.868 Y81.431 E154.93295
G1 X46.614 Y80.775 E154.97975
G1 X46.436 Y80.093 E155.02663
G1 X46.336 Y79.397 E155.07341
G1 X46.317 Y78.693 E155.12025
G1 X46.376 Y77.991 E155.16712
G1 X46.515 Y77.301 E155.21394
G1 X46.732 Y76.631 E155.26078
G1 X47.023 Y75.99 E155.30761
G1 X47.385 Y75.386 E155.35445
G1 X47.812 Y74.827 E155.40125
G1 X48.13 Y74.485 E155.43231
G1 X66.987 Y55.627 E157.20631
M204 S5000
M205 X30 Y30
G0 F3000 X67.553 Y56.193
M204 S500
M205 X20 Y20
G1 F900 X68.044 Y55.757 E157.24999
G1 X68.586 Y55.385 E157.29372
G1 X69.168 Y55.081 E157.3374
G1 X69.783 Y54.85 E157.3811
G1 X70.422 Y54.695 E157.42484
G1 X71.371 Y54.611 E157.48821
G1 X247.491 Y54.61 E169.20376
G1 X248.147 Y54.65 E169.24748
G1 X248.793 Y54.769 E169.29117
G1 X249.42 Y54.966 E169.33489
G1 X250.018 Y55.238 E169.37859
G1 X250.579 Y55.58 E169.4223
G1 X251.094 Y55.988 E169.466
G1 X251.556 Y56.455 E169.5097
G1 X251.957 Y56.975 E169.55338
G1 X252.293 Y57.539 E169.59705
G1 X252.557 Y58.141 E169.64078
G1 X252.747 Y58.77 E169.68449
G1 X252.858 Y59.417 E169.72816
G1 X252.891 Y60.01 E169.76766
G1 X252.891 Y239.991 E181.74005
G1 X252.851 Y240.647 E181.78377
G1 X252.732 Y241.293 E181.82746
G1 X252.535 Y241.92 E181.87118
G1 X252.263 Y242.518 E181.91488
G1 X251.921 Y243.079 E181.95859
G1 X251.513 Y243.594 E182.00229
G1 X251.046 Y244.056 E182.04599
G1 X250.526 Y244.457 E182.08967
G1 X249.962 Y244.793 E182.13334
G1 X249.36 Y245.057 E182.17707
G1 X248.731 Y245.247 E182.22078
G1 X248.084 Y245.358 E182.26444
G1 X247.491 Y245.391 E182.30395
G1 X71.374 Y245.39 E194.0193
G1 X70.718 Y245.35 E194.06302
G1 X70.072 Y245.231 E194.10672
G1 X69.445 Y245.034 E194.15043
G1 X68.847 Y244.762 E194.19414
G1 X68.286 Y244.42 E194.23784
G1 X67.556 Y243.809 E194.30117
G1 X48.695 Y224.951 E196.07535
G1 X48.259 Y224.459 E196.11908
G1 X47.887 Y223.918 E196.16276
G1 X47.583 Y223.335 E196.20649
G1 X47.352 Y222.72 E196.25019
G1 X47.197 Y222.082 E196.29387
G1 X47.121 Y221.429 E196.3376
G1 X47.125 Y220.772 E196.3813
G1 X47.209 Y220.121 E196.42497
G1 X47.371 Y219.484 E196.46869
G1 X47.609 Y218.872 E196.51237
G1 X47.92 Y218.293 E196.55609
G1 X48.298 Y217.756 E196.59977
G1 X48.648 Y217.361 E196.63488
G1 X51.023 Y214.927 E196.8611
G1 X54.604 Y210.908 E197.21917
G1 X57.928 Y206.724 E197.57463
G1 X61.02 Y202.343 E197.93133
G1 X63.85 Y197.809 E198.28686
G1 X66.425 Y193.114 E198.64306
G1 X68.723 Y188.295 E198.99821
G1 X70.757 Y183.326 E199.35537
G1 X72.493 Y178.286 E199.70996
G1 X73.958 Y173.098 E200.06856
G1 X74.582 Y170.475 E200.24792
G1 X75.103 Y167.952 E200.41929
G1 X75.974 Y162.629 E200.77808
G1 X76.538 Y157.309 E201.13395
G1 X76.801 Y151.954 E201.4906
G1 X76.76 Y146.609 E201.84616
G1 X76.417 Y141.272 E202.20191
G1 X75.771 Y135.946 E202.5588
G1 X74.826 Y130.67 E202.91534
G1 X74.262 Y128.139 E203.08783
G1 X72.858 Y122.905 E203.44831
G1 X71.182 Y117.827 E203.80402
G1 X69.222 Y112.851 E204.15978
G1 X66.985 Y107.996 E204.51537
G1 X64.47 Y103.263 E204.8719
G1 X61.701 Y98.697 E205.22712
G1 X58.67 Y94.281 E205.58341
G1 X55.393 Y90.043 E205.93977
G1 X51.894 Y86.008 E206.29504
G1 X48.625 Y82.616 E206.60841
G1 X48.199 Y82.116 E206.6521
G1 X47.837 Y81.568 E206.69579
G1 X47.544 Y80.98 E206.73949
G1 X47.324 Y80.361 E206.78319
G1 X47.181 Y79.719 E206.82694
G1 X47.118 Y79.066 E206.87058
G1 X47.134 Y78.409 E206.9143
G1 X47.229 Y77.759 E206.958
G1 X47.403 Y77.125 E207.00173
G1 X47.653 Y76.518 E207.0454
G1 X47.974 Y75.945 E207.08909
G1 X48.363 Y75.415 E207.13282
G1 X48.696 Y75.051 E207.16564
G1 X67.553 Y56.193 E208.93964
M204 S5000
M205 X30 Y30
G1 F2400 E203.93964
G0 F3000 X70.542 Y59.887
G0 X71.874 Y61.218
G0 X71.905 Y61.292
G0 X71.867 Y61.2
M204 S500
M205 X20 Y20
;TYPE:WALL-INNER
G1 F2400 E208.93964
G1 F900 X246.3 Y61.2 E220.54297
G1 X246.3 Y238.8 E232.35697
G1 X71.867 Y238.8 E243.9603
G1 X54.947 Y221.88 E245.55203
G1 X54.946 Y221.879 E245.55212
G1 X54.682 Y221.615 E245.57696
G1 X55.509 Y221.314 E245.60942
G1 X55.51 Y221.314 E245.60949
G1 X58.091 Y220.267 E245.79476
G1 X60.634 Y219.127 E245.98014
G1 X63.134 Y217.895 E246.16554
G1 X65.587 Y216.571 E246.35097
G1 X67.99 Y215.159 E246.53637
G1 X70.339 Y213.661 E246.72169
G1 X72.633 Y212.078 E246.9071
G1 X74.869 Y210.413 E247.09254
G1 X77.041 Y208.666 E247.27796
G1 X79.148 Y206.843 E247.4633
G1 X81.187 Y204.943 E247.64869
G1 X83.156 Y202.97 E247.83411
G1 X85.05 Y200.927 E248.01943
G1 X86.871 Y198.816 E248.20488
G1 X88.612 Y196.639 E248.39031
G1 X90.273 Y194.402 E248.57565
G1 X91.851 Y192.104 E248.76109
G1 X93.344 Y189.751 E248.94646
G1 X94.751 Y187.346 E249.1318
G1 X96.069 Y184.89 E249.31722
G1 X97.296 Y182.388 E249.50259
G1 X98.431 Y179.842 E249.68801
G1 X99.472 Y177.258 E249.87333
G1 X100.419 Y174.636 E250.05877
G1 X101.269 Y171.982 E250.24415
G1 X102.022 Y169.298 E250.42958
G1 X102.678 Y166.59 E250.61493
G1 X103.232 Y163.859 E250.8003
G1 X103.689 Y161.11 E250.98567
G1 X104.043 Y158.345 E251.1711
G1 X104.297 Y155.569 E251.35653
G1 X104.45 Y152.787 E251.54187
G1 X104.5 Y150 E251.72729
G1 X104.45 Y147.213 E251.91272
G1 X104.297 Y144.431 E252.09805
G1 X104.043 Y141.655 E252.28349
G1 X103.689 Y138.89 E252.46892
G1 X103.232 Y136.141 E252.65429
G1 X102.678 Y133.41 E252.83966
G1 X102.022 Y130.702 E253.025
G1 X101.269 Y128.018 E253.21044
G1 X100.419 Y125.364 E253.39582
G1 X99.472 Y122.742 E253.58126
G1 X98.431 Y120.158 E253.76657
G1 X97.296 Y117.612 E253.952
G1 X96.069 Y115.11 E254.13737
G1 X94.751 Y112.654 E254.32278
G1 X93.344 Y110.249 E254.50813
G1 X91.851 Y107.896 E254.6935
G1 X90.273 Y105.598 E254.87894
G1 X88.612 Y103.361 E255.06428
G1 X86.871 Y101.184 E255.2497
G1 X85.05 Y99.073 E255.43516
G1 X83.156 Y97.03 E255.62047
G1 X81.187 Y95.057 E255.80589
G1 X79.148 Y93.157 E255.99129
G1 X77.041 Y91.334 E256.17662
G1 X74.869 Y89.587 E256.36204
G1 X72.633 Y87.922 E256.54749
G1 X70.339 Y86.339 E256.73289
G1 X67.99 Y84.841 E256.91822
G1 X65.587 Y83.429 E257.10362
G1 X63.134 Y82.105 E257.28904
G1 X60.634 Y80.873 E257.47444
G1 X58.091 Y79.733 E257.65982
G1 X55.51 Y78.686 E257.8451
