;FLAVOR:Marlin
;TIME:16629
;Filament used: 25.5161m
;Layer height: 0.3
;Generated with Cura_SteamEngine 3.0.3
M190 S60
M104 S210
M109 S210
M82 ; absolute extrusion mode
G21 ;metric values
G90 ;absolute Positioning
G28 ; home all axes
G1 Z5 F3000 ; lift
G1 X20 Y2 F1500 ; avoid binder clips
G1 Z0.2 F3000 ; get ready to prime
G92 E0 ; reset extrusion distance
G1 X120 E10 F600 ; prime nozzle
G1 X150 F5000 ; quick wipe
;LAYER_COUNT:24
;LAYER:0
M107
M204 S5000
M205 X30 Y30
G0 F3000 X36.259 Y65.637 Z0.2
M204 S500
M205 X20 Y20
;TYPE:SKIRT
G1 F900 X36.969 Y65.29 E0.05257
G1 X37.71 Y65.017 E0.1051
G1 X38.475 Y64.821 E0.15763
G1 X39.255 Y64.703 E0.21011
G1 X40.044 Y64.664 E0.26266
G1 X40.833 Y64.705 E0.31521
G1 X41.613 Y64.826 E0.36772
G1 X42.377 Y65.025 E0.42023
G1 X42.92 Y65.219 E0.45859
G1 X48.277 Y67.355 E0.84222
G1 X50.583 Y68.158 E1.00465
G1 X55.642 Y69.685 E1.35617
G1 X60.716 Y70.909 E1.70338
G1 X65.839 Y71.842 E2.04977
G1 X71.019 Y72.485 E2.39699
G1 X76.223 Y72.833 E2.74393
G1 X81.44 Y72.888 E3.09099
G1 X86.65 Y72.647 E3.43793
G1 X91.838 Y72.112 E3.78487
G1 X97.045 Y71.275 E4.13568
G1 X99.491 Y70.776 E4.30174
G1 X102.036 Y70.18 E4.47562
G1 X107.1 Y68.765 E4.82538
G1 X112.045 Y67.076 E5.17298
G1 X116.676 Y65.22 E5.50486
G1 X117.423 Y64.964 E5.55738
G1 X118.192 Y64.784 E5.60992
G1 X118.975 Y64.683 E5.66244
G1 X119.765 Y64.662 E5.71501
G1 X120.552 Y64.721 E5.76751
G1 X121.33 Y64.859 E5.82007
G1 X122.089 Y65.075 E5.87256
G1 X122.823 Y65.367 E5.92511
G1 X123.411 Y65.667 E5.96902
G1 X128.995 Y68.817 E6.39549
G1 X133.666 Y71.091 E6.74107
G1 X138.477 Y73.107 E7.08807
G1 X143.384 Y74.843 E7.43431
G1 X148.41 Y76.307 E7.78253
G1 X153.564 Y77.499 E8.13443
G1 X156.002 Y77.951 E8.29937
G1 X161.199 Y78.695 E8.6486
G1 X166.41 Y79.14 E8.9965
G1 X171.626 Y79.292 E9.34361
G1 X176.839 Y79.148 E9.69051
G1 X182.018 Y78.711 E10.03625
G1 X187.191 Y77.977 E10.3838
G1 X192.315 Y76.953 E10.73139
G1 X196.536 Y75.86 E11.02144
G1 X196.744 Y75.809 E11.03568
G1 X198.976 Y75.296 E11.18803
G1 X199.659 Y75.171 E11.23421
G1 X203.637 Y74.623 E11.50133
G1 X204.123 Y74.571 E11.53384
G1 X207.879 Y74.292 E11.78438
G1 X208.328 Y74.272 E11.81428
G1 X211.347 Y74.222 E12.01513
G1 X211.824 Y74.229 E12.04687
G1 X216.241 Y74.426 E12.34098
G1 X216.746 Y74.465 E12.37467
G1 X220.5 Y74.878 E12.62589
G1 X221.077 Y74.963 E12.66469
G1 X224 Y75.508 E12.86248
G1 X224.768 Y75.692 E12.91501
G1 X225.513 Y75.953 E12.96752
G1 X226.228 Y76.287 E13.02002
G1 X226.765 Y76.6 E13.06137
G1 X231.102 Y79.366 E13.40354
G1 X235.651 Y81.978 E13.75248
G1 X240.311 Y84.314 E14.09923
G1 X245.186 Y86.422 E14.45254
G1 X247.484 Y87.3 E14.61618
G1 X252.899 Y89.132 E14.99644
G1 X253.634 Y89.423 E15.04903
G1 X254.335 Y89.786 E15.10154
G1 X254.996 Y90.219 E15.1541
G1 X255.36 Y90.501 E15.18473
G1 X256.853 Y91.731 E15.31341
G1 X257.24 Y92.072 E15.34772
G1 X259.07 Y93.795 E15.51492
G1 X259.405 Y94.13 E15.54643
G1 X262.764 Y97.701 E15.87255
G1 X263.059 Y98.034 E15.90215
G1 X264.361 Y99.587 E16.03695
G1 X264.558 Y99.831 E16.05782
G1 X266.33 Y102.126 E16.25069
G1 X266.534 Y102.403 E16.27357
G1 X267.971 Y104.444 E16.43962
G1 X268.149 Y104.708 E16.4608
G1 X269.497 Y106.799 E16.62629
G1 X269.741 Y107.203 E16.65768
G1 X272.133 Y111.459 E16.98245
G1 X272.419 Y112.02 E17.02433
G1 X274.503 Y116.549 E17.35597
G1 X274.735 Y117.11 E17.39635
G1 X276.282 Y121.302 E17.69359
G1 X276.468 Y121.874 E17.7336
G1 X277.815 Y126.625 E18.06209
G1 X277.936 Y127.109 E18.09528
G1 X278.547 Y129.943 E18.28813
G1 X278.612 Y130.282 E18.31109
G1 X279.028 Y132.733 E18.47646
G1 X279.075 Y133.051 E18.49784
G1 X279.392 Y135.535 E18.66442
G1 X279.438 Y136.004 E18.69577
G1 X279.763 Y140.888 E19.02137
G1 X279.78 Y141.363 E19.05299
G1 X279.794 Y143.878 E19.22029
G1 X279.789 Y144.194 E19.24131
G1 X279.703 Y146.651 E19.40485
G1 X279.672 Y147.124 E19.43639
G1 X279.2 Y152.034 E19.76451
G1 X279.115 Y152.657 E19.80633
G1 X278.246 Y157.53 E20.1356
G1 X278.116 Y158.124 E20.17605
G1 X276.983 Y162.48 E20.47545
G1 X276.81 Y163.055 E20.51539
G1 X275.21 Y167.705 E20.84251
G1 X275.043 Y168.146 E20.87388
G1 X274.103 Y170.421 E21.03762
G1 X273.907 Y170.856 E21.06936
G1 X271.741 Y175.306 E21.39858
G1 X271.521 Y175.725 E21.43006
G1 X270.292 Y177.903 E21.59642
G1 X270.13 Y178.177 E21.61759
G1 X268.827 Y180.281 E21.78221
G1 X268.655 Y180.547 E21.80329
G1 X267.272 Y182.59 E21.9674
G1 X267.071 Y182.874 E21.99054
G1 X265.32 Y185.227 E22.18565
G1 X265.112 Y185.494 E22.20816
G1 X263.564 Y187.396 E22.37129
G1 X263.357 Y187.639 E22.39252
G1 X261.715 Y189.496 E22.55742
G1 X261.392 Y189.84 E22.58881
G1 X257.923 Y193.315 E22.91543
G1 X257.459 Y193.744 E22.95747
G1 X253.695 Y196.948 E23.28628
G1 X253.326 Y197.243 E23.3177
G1 X251.357 Y198.723 E23.48156
G1 X250.97 Y198.996 E23.51306
G1 X246.852 Y201.717 E23.84139
G1 X246.449 Y201.966 E23.8729
G1 X244.301 Y203.205 E24.03785
G1 X244.025 Y203.357 E24.05881
G1 X241.821 Y204.512 E24.22433
G1 X241.393 Y204.719 E24.25596
G1 X236.907 Y206.732 E24.58304
G1 X236.348 Y206.958 E24.62315
G1 X232.119 Y208.475 E24.92201
G1 X231.697 Y208.613 E24.95155
G1 X229.327 Y209.314 E25.11595
G1 X229.021 Y209.398 E25.13706
G1 X226.604 Y210.007 E25.30286
G1 X226.266 Y210.084 E25.32592
G1 X223.396 Y210.673 E25.52082
G1 X223.055 Y210.735 E25.54387
G1 X220.638 Y211.12 E25.70668
G1 X220.328 Y211.163 E25.7275
G1 X217.852 Y211.456 E25.89335
G1 X217.534 Y211.487 E25.9146
G1 X215.066 Y211.677 E26.07926
G1 X214.751 Y211.695 E26.10025
G1 X212.285 Y211.785 E26.2644
G1 X211.814 Y211.788 E26.29573
G1 X206.904 Y211.67 E26.62244
G1 X206.429 Y211.644 E26.65408
G1 X203.942 Y211.432 E26.82012
G1 X203.674 Y211.404 E26.83804
G1 X194.969 Y210.358 E27.42127
G1 X189.793 Y210.063 E27.76613
G1 X184.578 Y210.061 E28.11304
G1 X179.367 Y210.355 E28.46023
G1 X174.172 Y210.942 E28.808
G1 X169.045 Y211.82 E29.15401
G1 X163.928 Y212.995 E29.50326
G1 X161.513 Y213.659 E29.66986
G1 X156.467 Y215.279 E30.0224
G1 X151.623 Y217.144 E30.36768
G1 X146.859 Y219.293 E30.71533
G1 X142.241 Y221.7 E31.06175
G1 X137.758 Y224.369 E31.40881
G1 X133.43 Y227.29 E31.75614
G1 X129.286 Y230.442 E32.10248
G1 X122.549 Y236.201 E32.69205
G1 X122.251 Y236.443 E32.71759
G1 X120.264 Y237.979 E32.88465
G1 X120.009 Y238.168 E32.90576
G1 X118.003 Y239.592 E33.06941
G1 X117.733 Y239.776 E33.09114
G1 X115.647 Y241.129 E33.25654
G1 X115.37 Y241.3 E33.27819
G1 X113.207 Y242.578 E33.44531
G1 X112.928 Y242.736 E33.46664
G1 X110.793 Y243.882 E33.62783
G1 X110.509 Y244.027 E33.64904
G1 X108.279 Y245.109 E33.81392
G1 X107.862 Y245.296 E33.84432
G1 X103.64 Y247.047 E34.14836
G1 X103.212 Y247.21 E34.17883
G1 X100.866 Y248.025 E34.34403
G1 X100.559 Y248.125 E34.36551
G1 X98.172 Y248.845 E34.53136
G1 X97.859 Y248.932 E34.55297
G1 X95.46 Y249.548 E34.71773
G1 X95.12 Y249.627 E34.74095
G1 X92.276 Y250.223 E34.93424
G1 X91.935 Y250.287 E34.95732
G1 X89.544 Y250.678 E35.11849
G1 X89.224 Y250.723 E35.13998
G1 X86.685 Y251.031 E35.31011
G1 X86.358 Y251.064 E35.33198
G1 X83.905 Y251.257 E35.49566
G1 X83.588 Y251.275 E35.51678
G1 X81.131 Y251.368 E35.68033
G1 X80.808 Y251.374 E35.70182
G1 X78.3 Y251.365 E35.86866
G1 X77.818 Y251.348 E35.90074
G1 X72.906 Y251.026 E36.22819
G1 X72.424 Y250.98 E36.2604
G1 X69.936 Y250.661 E36.42725
G1 X69.617 Y250.613 E36.44871
G1 X67.2 Y250.201 E36.61181
G1 X66.753 Y250.111 E36.64214
G1 X62.305 Y249.082 E36.94584
G1 X61.836 Y248.958 E36.97811
G1 X59.07 Y248.134 E37.1701
G1 X58.735 Y248.026 E37.19351
G1 X56.368 Y247.203 E37.36021
G1 X56.068 Y247.092 E37.38149
G1 X53.776 Y246.188 E37.54538
G1 X53.48 Y246.064 E37.56673
G1 X51.231 Y245.068 E37.73035
G1 X50.938 Y244.931 E37.75186
G1 X48.672 Y243.813 E37.91995
G1 X48.385 Y243.664 E37.94146
G1 X46.255 Y242.501 E38.10289
G1 X45.974 Y242.34 E38.12443
G1 X43.813 Y241.041 E38.29216
G1 X43.542 Y240.87 E38.31347
G1 X41.463 Y239.501 E38.47906
G1 X41.196 Y239.317 E38.50063
G1 X39.225 Y237.898 E38.66218
G1 X38.968 Y237.705 E38.68356
G1 X36.992 Y236.155 E38.85062
G1 X36.746 Y235.954 E38.87175
G1 X34.895 Y234.376 E39.03355
G1 X34.652 Y234.16 E39.05518
G1 X32.783 Y232.427 E39.22473
G1 X32.453 Y232.103 E39.25549
G1 X29.31 Y228.822 E39.55773
G1 X28.903 Y228.361 E39.59863
G1 X25.777 Y224.535 E39.92729
G1 X25.482 Y224.151 E39.9595
G1 X24.038 Y222.141 E40.12413
G1 X23.858 Y221.879 E40.14528
G1 X22.509 Y219.83 E40.30846
G1 X22.334 Y219.552 E40.33032
G1 X21.027 Y217.372 E40.4994
G1 X20.868 Y217.093 E40.52076
G1 X19.697 Y214.944 E40.68355
G1 X19.536 Y214.633 E40.70685
G1 X18.253 Y212.004 E40.90145
G1 X18.055 Y211.563 E40.9336
G1 X16.328 Y207.385 E41.23433
G1 X16.166 Y206.959 E41.26465
G1 X15.361 Y204.636 E41.42819
G1 X15.263 Y204.333 E41.44937
G1 X14.544 Y201.947 E41.61514
G1 X14.456 Y201.63 E41.63703
G1 X13.831 Y199.188 E41.8047
G1 X13.752 Y198.851 E41.82773
G1 X13.171 Y196.073 E42.01652
G1 X13.107 Y195.729 E42.0398
G1 X12.704 Y193.253 E42.20667
G1 X12.659 Y192.932 E42.22823
G1 X12.361 Y190.457 E42.39406
G1 X12.329 Y190.134 E42.41565
G1 X12.135 Y187.657 E42.58092
G1 X12.116 Y187.336 E42.60231
G1 X12.024 Y184.85 E42.7678
G1 X12.019 Y184.527 E42.78928
G1 X12.03 Y182.055 E42.95372
G1 X12.038 Y181.729 E42.97542
G1 X12.154 Y179.223 E43.1423
G1 X12.191 Y178.744 E43.17425
G1 X12.721 Y173.851 E43.50164
G1 X12.789 Y173.37 E43.53396
G1 X13.213 Y170.903 E43.70047
G1 X13.303 Y170.457 E43.73073
G1 X14.331 Y166.036 E44.03266
G1 X14.447 Y165.594 E44.06306
G1 X15.148 Y163.22 E44.22772
G1 X15.246 Y162.913 E44.24916
G1 X16.044 Y160.571 E44.41374
G1 X16.154 Y160.269 E44.43513
G1 X17.055 Y157.944 E44.60099
G1 X17.179 Y157.643 E44.62265
G1 X18.176 Y155.358 E44.78848
G1 X18.323 Y155.041 E44.81173
G1 X19.61 Y152.418 E45.00608
G1 X19.771 Y152.107 E45.02938
G1 X20.947 Y149.96 E45.19222
G1 X21.062 Y149.757 E45.20774
G1 X24.485 Y143.929 E45.65734
G1 X26.869 Y139.296 E46.00394
G1 X28.99 Y134.528 E46.35107
G1 X30.839 Y129.651 E46.69802
G1 X32.409 Y124.671 E47.04537
G1 X33.713 Y119.545 E47.39721
G1 X34.216 Y117.139 E47.56072
G1 X35.08 Y111.926 E47.91222
G1 X35.639 Y106.744 E48.25893
G1 X35.905 Y101.534 E48.60595
G1 X35.876 Y96.319 E48.95286
G1 X35.551 Y91.109 E49.3001
G1 X34.935 Y85.934 E49.64677
G1 X34.019 Y80.765 E49.99597
G1 X33.469 Y78.281 E50.16521
G1 X32.475 Y74.399 E50.43178
G1 X32.318 Y73.625 E50.48431
G1 X32.24 Y72.839 E50.53685
G1 X32.242 Y72.049 E50.5894
G1 X32.324 Y71.264 E50.64191
G1 X32.485 Y70.491 E50.69443
G1 X32.723 Y69.738 E50.74696
G1 X33.036 Y69.013 E50.79949
G1 X33.421 Y68.323 E50.85205
G1 X33.873 Y67.676 E50.90455
G1 X34.389 Y67.078 E50.95709
G1 X34.963 Y66.535 E51.00965
G1 X35.588 Y66.053 E51.06216
G1 X36.259 Y65.637 E51.11467
M204 S5000
M205 X30 Y30
G0 F3000 X36.441 Y66.454
M204 S500
M205 X20 Y20
G1 F900 X37.103 Y66.106 E51.16442
G1 X37.798 Y65.83 E51.21417
G1 X38.519 Y65.629 E51.26396
G1 X39.257 Y65.507 E51.31372
G1 X40.004 Y65.464 E51.36349
G1 X40.751 Y65.501 E51.41324
G1 X41.49 Y65.618 E51.46301
G1 X42.212 Y65.813 E51.51276
G1 X42.624 Y65.962 E51.5419
G1 X47.991 Y68.102 E51.92625
G1 X50.356 Y68.925 E52.09283
G1 X55.429 Y70.457 E52.44534
G1 X60.546 Y71.691 E52.79548
G1 X65.72 Y72.633 E53.14531
G1 X70.956 Y73.283 E53.49629
G1 X76.179 Y73.633 E53.8445
G1 X81.451 Y73.688 E54.19521
G1 X86.716 Y73.445 E54.54582
G1 X91.941 Y72.906 E54.89523
G1 X97.166 Y72.066 E55.24726
G1 X99.69 Y71.551 E55.41862
G1 X102.229 Y70.956 E55.59209
G1 X107.343 Y69.527 E55.9453
G1 X112.331 Y67.824 E56.29591
G1 X116.974 Y65.963 E56.62865
G1 X117.682 Y65.722 E56.6784
G1 X118.412 Y65.558 E56.72817
G1 X119.155 Y65.473 E56.77792
G1 X119.903 Y65.468 E56.82768
G1 X120.647 Y65.542 E56.87741
G1 X121.379 Y65.696 E56.92717
G1 X122.091 Y65.927 E56.97696
G1 X123.017 Y66.363 E57.04505
G1 X128.621 Y69.525 E57.47307
G1 X133.343 Y71.823 E57.8224
G1 X138.186 Y73.853 E58.17172
G1 X143.14 Y75.605 E58.52126
G1 X148.216 Y77.084 E58.87296
G1 X153.399 Y78.282 E59.22682
G1 X155.866 Y78.74 E59.39373
G1 X161.105 Y79.49 E59.74579
G1 X166.37 Y79.94 E60.09729
G1 X171.625 Y80.092 E60.447
G1 X176.875 Y79.948 E60.79636
G1 X182.112 Y79.505 E61.14598
G1 X187.332 Y78.765 E61.49668
G1 X192.482 Y77.735 E61.84605
G1 X196.737 Y76.634 E62.13841
G1 X196.923 Y76.589 E62.15114
G1 X199.155 Y76.076 E62.30349
G1 X199.768 Y75.963 E62.34495
G1 X203.746 Y75.415 E62.61207
G1 X204.182 Y75.369 E62.64123
G1 X207.938 Y75.09 E62.89177
G1 X208.341 Y75.072 E62.9186
G1 X211.36 Y75.022 E63.11946
G1 X211.788 Y75.028 E63.14793
G1 X216.205 Y75.225 E63.44204
G1 X216.658 Y75.26 E63.47227
G1 X220.412 Y75.673 E63.72349
G1 X220.93 Y75.75 E63.75833
G1 X223.853 Y76.295 E63.95611
G1 X224.58 Y76.471 E64.00587
G1 X225.284 Y76.724 E64.05563
G1 X225.957 Y77.05 E64.10538
G1 X226.335 Y77.274 E64.13461
G1 X230.691 Y80.053 E64.47831
G1 X235.279 Y82.687 E64.83023
G1 X239.971 Y85.038 E65.17933
G1 X244.883 Y87.163 E65.53534
G1 X247.218 Y88.055 E65.70162
G1 X252.643 Y89.89 E66.08257
G1 X253.338 Y90.167 E66.13234
G1 X253.999 Y90.517 E66.1821
G1 X254.851 Y91.118 E66.25145
G1 X256.344 Y92.348 E66.38013
G1 X256.692 Y92.654 E66.41096
G1 X258.522 Y94.377 E66.57815
G1 X258.822 Y94.678 E66.60642
G1 X262.181 Y98.249 E66.93254
G1 X262.446 Y98.548 E66.95912
G1 X263.748 Y100.101 E67.09393
G1 X263.925 Y100.32 E67.11266
G1 X265.697 Y102.615 E67.30553
G1 X265.88 Y102.863 E67.32604
G1 X267.317 Y104.904 E67.49208
G1 X267.476 Y105.141 E67.51106
G1 X268.824 Y107.232 E67.67656
G1 X269.043 Y107.595 E67.70476
G1 X271.435 Y111.851 E68.02952
G1 X271.692 Y112.355 E68.06715
G1 X273.776 Y116.884 E68.39879
G1 X273.984 Y117.387 E68.43499
G1 X275.531 Y121.579 E68.73223
G1 X275.699 Y122.093 E68.7682
G1 X277.046 Y126.844 E69.09669
G1 X277.154 Y127.278 E69.12644
G1 X277.765 Y130.112 E69.31929
G1 X277.823 Y130.416 E69.33988
G1 X278.239 Y132.867 E69.50525
G1 X278.282 Y133.152 E69.52443
G1 X278.599 Y135.636 E69.691
G1 X278.64 Y136.057 E69.71914
G1 X278.965 Y140.941 E70.04474
G1 X278.98 Y141.367 E70.0731
G1 X278.994 Y143.882 E70.2404
G1 X278.99 Y144.166 E70.25929
G1 X278.904 Y146.623 E70.42283
G1 X278.876 Y147.048 E70.45117
G1 X278.404 Y151.958 E70.77929
G1 X278.327 Y152.517 E70.81682
G1 X277.458 Y157.39 E71.14609
G1 X277.342 Y157.923 E71.18238
G1 X276.209 Y162.279 E71.48178
G1 X276.053 Y162.795 E71.51764
G1 X274.453 Y167.445 E71.84476
G1 X274.304 Y167.84 E71.87284
G1 X273.364 Y170.115 E72.03658
G1 X273.188 Y170.506 E72.0651
G1 X271.022 Y174.956 E72.39432
G1 X270.824 Y175.332 E72.42259
G1 X269.595 Y177.51 E72.58895
G1 X269.45 Y177.756 E72.60794
G1 X268.147 Y179.86 E72.77257
G1 X267.993 Y180.098 E72.79142
G1 X266.61 Y182.141 E72.95553
G1 X266.429 Y182.396 E72.97634
G1 X264.678 Y184.749 E73.17144
G1 X264.491 Y184.989 E73.19168
G1 X262.943 Y186.891 E73.35481
G1 X262.758 Y187.109 E73.37383
G1 X261.116 Y188.966 E73.53872
G1 X260.826 Y189.274 E73.56686
G1 X257.357 Y192.749 E73.89349
G1 X256.94 Y193.134 E73.93124
G1 X253.176 Y196.338 E74.26005
G1 X252.845 Y196.604 E74.2883
G1 X250.876 Y198.084 E74.45215
G1 X250.529 Y198.328 E74.48037
G1 X246.411 Y201.049 E74.8087
G1 X246.05 Y201.273 E74.83696
G1 X243.902 Y202.512 E75.00191
G1 X243.653 Y202.648 E75.02078
G1 X241.449 Y203.803 E75.1863
G1 X241.066 Y203.989 E75.21463
G1 X236.58 Y206.002 E75.5417
G1 X236.078 Y206.205 E75.57772
G1 X231.849 Y207.722 E75.87659
G1 X231.47 Y207.846 E75.90312
G1 X229.1 Y208.547 E76.06752
G1 X228.825 Y208.622 E76.08648
G1 X226.408 Y209.231 E76.25229
G1 X226.105 Y209.3 E76.27296
G1 X223.235 Y209.889 E76.46785
G1 X222.929 Y209.945 E76.48854
G1 X220.512 Y210.33 E76.65135
G1 X220.234 Y210.368 E76.67002
G1 X217.758 Y210.661 E76.83587
G1 X217.472 Y210.689 E76.85498
G1 X215.004 Y210.879 E77.01964
G1 X214.722 Y210.895 E77.03843
G1 X212.256 Y210.985 E77.20258
G1 X211.833 Y210.988 E77.23072
G1 X206.923 Y210.87 E77.55743
G1 X206.496 Y210.847 E77.58587
G1 X204.009 Y210.635 E77.75191
G1 X203.769 Y210.61 E77.76796
G1 X195.046 Y209.562 E78.35239
G1 X189.803 Y209.263 E78.70172
G1 X184.551 Y209.261 E79.05109
G1 X179.303 Y209.557 E79.40074
G1 X174.07 Y210.149 E79.75106
G1 X168.874 Y211.038 E80.10172
G1 X163.748 Y212.216 E80.45159
G1 X161.267 Y212.897 E80.62273
G1 X156.219 Y214.518 E80.97542
G1 X151.307 Y216.409 E81.32554
G1 X146.51 Y218.573 E81.6756
G1 X141.833 Y221.011 E82.02645
G1 X137.334 Y223.689 E82.37473
G1 X132.978 Y226.63 E82.72435
