;FLAVOR:Marlin
;TIME:16647
;Filament used: 22.1664m
;Layer height: 0.3
;Generated with Cura_SteamEngine 3.0.3
M190 S60
M104 S210
M109 S210
M82 ; absolute extrusion mode
G21 ;metric values
G90 ;absolute Positioning
G28 ; home all axes
G1 Z5 F3000 ; lift
G1 X20 Y2 F1500 ; avoid binder clips
G1 Z0.2 F3000 ; get ready to prime
G92 E0 ; reset extrusion distance
G1 X120 E10 F600 ; prime nozzle
G1 X150 F5000 ; quick wipe
;LAYER_COUNT:7
;LAYER:0
M107
M204 S5000
M205 X30 Y30
G0 F3000 X144.865 Y65.367 Z0.2
M204 S500
M205 X20 Y20
;TYPE:SKIRT
G1 F900 X145.071 Y64.929 E0.0322
G1 X147.314 Y60.519 E0.36132
G1 X147.545 Y60.097 E0.39332
G1 X148.797 Y57.971 E0.55744
G1 X148.968 Y57.694 E0.5791
G1 X150.332 Y55.584 E0.74623
G1 X150.514 Y55.315 E0.76783
G1 X151.945 Y53.292 E0.93267
G1 X152.135 Y53.034 E0.95398
G1 X153.645 Y51.075 E1.11851
G1 X153.848 Y50.824 E1.13999
G1 X155.448 Y48.917 E1.30558
G1 X155.661 Y48.673 E1.32712
G1 X157.348 Y46.824 E1.49362
G1 X157.571 Y46.589 E1.51517
G1 X159.305 Y44.84 E1.679
G1 X159.534 Y44.618 E1.70022
G1 X161.345 Y42.935 E1.86467
G1 X161.588 Y42.719 E1.8863
G1 X163.484 Y41.099 E2.05219
G1 X163.734 Y40.894 E2.0737
G1 X165.675 Y39.37 E2.23786
G1 X165.931 Y39.177 E2.25918
G1 X167.954 Y37.719 E2.42506
G1 X168.221 Y37.535 E2.44663
G1 X170.282 Y36.176 E2.61085
G1 X170.55 Y36.007 E2.63193
G1 X172.676 Y34.726 E2.79704
G1 X172.962 Y34.562 E2.81897
G1 X175.153 Y33.365 E2.98505
G1 X175.436 Y33.218 E3.00626
G1 X177.657 Y32.12 E3.17107
G1 X177.953 Y31.981 E3.19282
G1 X180.236 Y30.969 E3.35894
G1 X180.559 Y30.835 E3.3822
G1 X183.244 Y29.786 E3.57396
G1 X183.566 Y29.668 E3.59677
G1 X185.872 Y28.882 E3.75883
G1 X186.181 Y28.784 E3.78039
G1 X188.594 Y28.072 E3.94775
G1 X188.91 Y27.986 E3.96953
G1 X191.323 Y27.383 E4.13498
G1 X191.768 Y27.285 E4.16529
G1 X196.269 Y26.436 E4.46998
G1 X196.722 Y26.365 E4.50048
G1 X199.152 Y26.053 E4.66345
G1 X199.47 Y26.018 E4.68473
G1 X201.956 Y25.802 E4.85073
G1 X202.279 Y25.781 E4.87226
G1 X204.76 Y25.669 E5.03746
G1 X205.083 Y25.661 E5.05896
G1 X207.538 Y25.652 E5.22226
G1 X207.858 Y25.657 E5.24355
G1 X210.324 Y25.749 E5.40771
G1 X210.644 Y25.768 E5.42903
G1 X213.113 Y25.962 E5.59378
G1 X213.438 Y25.994 E5.6155
G1 X215.936 Y26.296 E5.78288
G1 X216.253 Y26.341 E5.80417
G1 X218.674 Y26.735 E5.96734
G1 X218.989 Y26.793 E5.98865
G1 X221.415 Y27.291 E6.15339
G1 X221.756 Y27.369 E6.17666
G1 X224.549 Y28.074 E6.36828
G1 X224.887 Y28.168 E6.39161
G1 X227.32 Y28.9 E6.56062
G1 X227.78 Y29.054 E6.59289
G1 X232.376 Y30.755 E6.91889
G1 X232.824 Y30.937 E6.95105
G1 X235.119 Y31.952 E7.11798
G1 X235.413 Y32.089 E7.13956
G1 X237.634 Y33.184 E7.30428
G1 X237.915 Y33.33 E7.32534
G1 X240.08 Y34.509 E7.48933
G1 X240.364 Y34.671 E7.51108
G1 X242.523 Y35.967 E7.67858
G1 X242.797 Y36.139 E7.7001
G1 X244.865 Y37.5 E7.86479
G1 X245.129 Y37.682 E7.88612
G1 X247.127 Y39.118 E8.04979
G1 X247.385 Y39.312 E8.07126
G1 X249.347 Y40.849 E8.23706
G1 X249.597 Y41.053 E8.25852
G1 X251.469 Y42.649 E8.42216
G1 X251.709 Y42.862 E8.4435
G1 X253.534 Y44.552 E8.60896
G1 X253.863 Y44.875 E8.63963
G1 X257.044 Y48.191 E8.9453
G1 X257.352 Y48.533 E8.97591
G1 X258.946 Y50.404 E9.13941
G1 X259.147 Y50.649 E9.16049
G1 X260.686 Y52.612 E9.32642
G1 X260.882 Y52.873 E9.34813
G1 X262.318 Y54.871 E9.51181
G1 X262.499 Y55.134 E9.53304
G1 X263.86 Y57.201 E9.69767
G1 X264.033 Y57.477 E9.71934
G1 X265.329 Y59.637 E9.8869
G1 X265.491 Y59.92 E9.90859
G1 X266.67 Y62.085 E10.07258
G1 X266.826 Y62.387 E10.09519
G1 X268.076 Y64.942 E10.2844
G1 X268.277 Y65.386 E10.31682
G1 X270.037 Y69.636 E10.62281
G1 X270.198 Y70.061 E10.65305
G1 X270.999 Y72.367 E10.81543
G1 X271.101 Y72.68 E10.83733
G1 X271.833 Y75.114 E11.00641
G1 X271.919 Y75.424 E11.02781
G1 X272.526 Y77.793 E11.19048
G1 X272.605 Y78.132 E11.21364
G1 X273.201 Y80.982 E11.40732
G1 X273.265 Y81.325 E11.43053
G1 X273.659 Y83.744 E11.59356
G1 X273.704 Y84.063 E11.61499
G1 X274.006 Y86.563 E11.7825
G1 X274.038 Y86.887 E11.80416
G1 X274.232 Y89.356 E11.96891
G1 X274.251 Y89.676 E11.99023
G1 X274.343 Y92.141 E12.15432
G1 X274.348 Y92.461 E12.17561
G1 X274.339 Y94.917 E12.33898
G1 X274.331 Y95.24 E12.36047
G1 X274.219 Y97.721 E12.52568
G1 X274.198 Y98.044 E12.54721
G1 X273.982 Y100.53 E12.7132
G1 X273.947 Y100.848 E12.73448
G1 X273.635 Y103.278 E12.89745
G1 X273.587 Y103.599 E12.91904
G1 X273.163 Y106.079 E13.08641
G1 X273.073 Y106.527 E13.11681
G1 X272.045 Y110.961 E13.41958
G1 X271.928 Y111.406 E13.45019
G1 X271.216 Y113.82 E13.61761
G1 X271.065 Y114.281 E13.64987
G1 X269.379 Y118.913 E13.97777
G1 X269.199 Y119.363 E14.01001
G1 X268.199 Y121.656 E14.17642
G1 X268.054 Y121.968 E14.1993
G1 X266.797 Y124.535 E14.38944
G1 X266.571 Y124.964 E14.42169
G1 X264.319 Y128.92 E14.7245
G1 X264.081 Y129.31 E14.75489
G1 X262.73 Y131.39 E14.91987
G1 X262.549 Y131.656 E14.94128
G1 X261.105 Y133.69 E15.10721
G1 X260.91 Y133.954 E15.12904
G1 X259.389 Y135.916 E15.29418
G1 X259.189 Y136.162 E15.31527
G1 X257.596 Y138.053 E15.47974
G1 X257.384 Y138.295 E15.50114
G1 X255.713 Y140.12 E15.66575
G1 X255.47 Y140.374 E15.68913
G1 X253.429 Y142.411 E15.88095
G1 X253.163 Y142.664 E15.90536
G1 X251.048 Y144.585 E16.09543
G1 X250.675 Y144.903 E16.12803
G1 X247.113 Y147.751 E16.4314
G1 X246.747 Y148.027 E16.46189
G1 X244.686 Y149.485 E16.62983
G1 X244.418 Y149.666 E16.65134
G1 X242.308 Y151.031 E16.81851
G1 X242.029 Y151.203 E16.84031
G1 X239.903 Y152.455 E17.00444
G1 X239.624 Y152.612 E17.02573
G1 X237.476 Y153.761 E17.18778
G1 X237.193 Y153.905 E17.2089
G1 X234.931 Y154.999 E17.37604
G1 X234.633 Y155.135 E17.39783
G1 X232.355 Y156.121 E17.56295
G1 X232.058 Y156.243 E17.58431
G1 X229.729 Y157.139 E17.7503
G1 X229.424 Y157.249 E17.77187
G1 X227.118 Y158.028 E17.93378
G1 X226.853 Y158.112 E17.95227
G1 X218.627 Y160.568 E18.52334
G1 X213.74 Y162.364 E18.86968
G1 X211.401 Y163.335 E19.03815
G1 X206.623 Y165.566 E19.38892
G1 X202.044 Y168.027 E19.73472
G1 X197.591 Y170.757 E20.08217
G1 X193.296 Y173.735 E20.42984
G1 X189.16 Y176.965 E20.77892
G1 X187.249 Y178.592 E20.94587
G1 X183.386 Y182.176 E21.2964
G1 X179.765 Y185.936 E21.64364
G1 X176.376 Y189.88 E21.98955
G1 X173.194 Y194.04 E22.33795
G1 X170.238 Y198.388 E22.68769
G1 X168.919 Y200.522 E22.85457
G1 X166.353 Y205.09 E23.2031
G1 X164.046 Y209.804 E23.55221
G1 X162.029 Y214.591 E23.89775
G1 X160.276 Y219.513 E24.24531
G1 X158.12 Y226.827 E24.75254
G1 X158.027 Y227.119 E24.77293
G1 X157.248 Y229.424 E24.93477
G1 X157.14 Y229.725 E24.95605
G1 X156.245 Y232.054 E25.12202
G1 X156.122 Y232.356 E25.14371
G1 X155.135 Y234.635 E25.30892
G1 X154.93 Y235.07 E25.3409
G1 X152.688 Y239.479 E25.66993
G1 X152.456 Y239.903 E25.70208
G1 X151.203 Y242.03 E25.8663
G1 X151.032 Y242.306 E25.8879
G1 X149.668 Y244.416 E26.05503
G1 X149.485 Y244.687 E26.07678
G1 X148.054 Y246.709 E26.24156
G1 X147.866 Y246.963 E26.26258
G1 X146.356 Y248.923 E26.42717
G1 X146.152 Y249.176 E26.44878
G1 X144.552 Y251.083 E26.61437
G1 X144.339 Y251.327 E26.63592
G1 X142.653 Y253.175 E26.80232
G1 X142.41 Y253.429 E26.82571
G1 X140.372 Y255.47 E27.01757
G1 X140.122 Y255.71 E27.04062
G1 X138.297 Y257.382 E27.20527
G1 X138.057 Y257.594 E27.22657
G1 X136.167 Y259.188 E27.39104
G1 X135.913 Y259.392 E27.41271
G1 X133.95 Y260.912 E27.57786
G1 X133.69 Y261.105 E27.5994
G1 X131.656 Y262.549 E27.76533
G1 X131.391 Y262.729 E27.78664
G1 X129.312 Y264.08 E27.95157
G1 X129.035 Y264.252 E27.97326
G1 X126.908 Y265.511 E28.13767
G1 X126.511 Y265.731 E28.16787
G1 X122.461 Y267.82 E28.471
G1 X122.026 Y268.028 E28.50308
G1 X119.387 Y269.189 E28.69486
G1 X118.935 Y269.371 E28.72727
G1 X114.663 Y270.94 E29.03001
G1 X114.229 Y271.085 E29.06045
G1 X111.825 Y271.811 E29.22749
G1 X111.515 Y271.898 E29.24891
G1 X109.146 Y272.508 E29.41164
G1 X108.809 Y272.586 E29.43465
G1 X105.99 Y273.18 E29.62629
G1 X105.645 Y273.245 E29.64964
G1 X103.189 Y273.648 E29.8152
G1 X102.873 Y273.693 E29.83643
G1 X100.421 Y273.993 E30.00076
G1 X100.1 Y274.026 E30.02222
G1 X97.615 Y274.226 E30.18806
G1 X97.29 Y274.245 E30.20971
G1 X94.806 Y274.341 E30.37507
G1 X94.48 Y274.347 E30.39676
G1 X91.972 Y274.339 E30.5636
G1 X91.649 Y274.331 E30.58509
G1 X89.165 Y274.22 E30.75049
G1 X88.846 Y274.199 E30.77176
G1 X86.411 Y273.99 E30.93433
G1 X86.089 Y273.956 E30.95587
G1 X83.594 Y273.637 E31.12319
G1 X83.272 Y273.589 E31.14484
G1 X80.827 Y273.172 E31.30983
G1 X80.382 Y273.083 E31.34002
G1 X75.968 Y272.063 E31.64138
G1 X75.374 Y271.901 E31.68234
G1 X70.668 Y270.414 E32.01064
G1 X70.21 Y270.253 E32.04293
G1 X67.849 Y269.342 E32.21127
G1 X67.401 Y269.153 E32.24361
G1 X62.925 Y267.097 E32.57127
G1 X62.472 Y266.871 E32.60494
G1 X59.941 Y265.503 E32.79633
G1 X59.637 Y265.329 E32.81963
G1 X57.477 Y264.033 E32.98719
G1 X57.201 Y263.86 E33.00886
G1 X55.134 Y262.499 E33.17348
G1 X54.871 Y262.318 E33.19472
G1 X52.873 Y260.882 E33.35839
G1 X52.614 Y260.688 E33.37992
G1 X50.651 Y259.15 E33.54581
G1 X50.28 Y258.84 E33.57797
G1 X46.584 Y255.555 E33.9069
G1 X46.249 Y255.239 E33.93753
G1 X44.758 Y253.747 E34.07784
G1 X44.538 Y253.517 E34.09902
G1 X42.603 Y251.416 E34.28902
G1 X42.371 Y251.153 E34.31235
G1 X40.772 Y249.252 E34.47759
G1 X40.569 Y249.001 E34.49906
G1 X39.038 Y247.02 E34.66561
G1 X38.845 Y246.758 E34.68725
G1 X37.42 Y244.746 E34.85126
G1 X37.241 Y244.483 E34.87242
G1 X35.884 Y242.391 E35.03829
G1 X35.713 Y242.114 E35.05995
G1 X34.468 Y240.007 E35.22275
G1 X34.311 Y239.729 E35.24398
G1 X33.119 Y237.509 E35.4116
G1 X32.972 Y237.221 E35.43311
G1 X31.911 Y235.032 E35.59493
G1 X31.778 Y234.742 E35.61615
G1 X30.783 Y232.455 E35.78206
G1 X30.659 Y232.153 E35.80377
G1 X29.747 Y229.791 E35.9722
G1 X29.635 Y229.482 E35.99406
G1 X28.854 Y227.175 E36.15608
G1 X28.759 Y226.874 E36.17707
G1 X28.054 Y224.476 E36.34334
G1 X27.937 Y224.032 E36.37388
G1 X26.917 Y219.618 E36.67524
G1 X26.828 Y219.173 E36.70543
G1 X26.411 Y216.727 E36.87049
G1 X26.363 Y216.406 E36.89208
G1 X26.044 Y213.912 E37.05933
G1 X26.01 Y213.589 E37.08093
G1 X25.801 Y211.154 E37.24351
G1 X25.78 Y210.835 E37.26477
G1 X25.669 Y208.352 E37.43011
G1 X25.661 Y208.029 E37.4516
G1 X25.653 Y205.52 E37.6185
G1 X25.659 Y205.194 E37.64019
G1 X25.755 Y202.71 E37.80555
G1 X25.774 Y202.385 E37.82721
G1 X25.974 Y199.901 E37.99298
G1 X26.007 Y199.581 E38.01438
G1 X26.307 Y197.127 E38.17883
G1 X26.352 Y196.81 E38.20013
G1 X26.755 Y194.355 E38.36562
G1 X26.82 Y194.01 E38.38898
G1 X27.414 Y191.191 E38.58062
G1 X27.493 Y190.853 E38.60371
G1 X28.103 Y188.485 E38.76637
G1 X28.189 Y188.177 E38.78764
G1 X28.915 Y185.772 E38.95475
G1 X29.015 Y185.462 E38.97642
G1 X29.827 Y183.129 E39.14074
G1 X29.938 Y182.83 E39.16196
G1 X30.844 Y180.534 E39.32615
G1 X30.969 Y180.236 E39.34765
G1 X31.981 Y177.953 E39.51376
G1 X32.119 Y177.659 E39.53537
G1 X33.216 Y175.439 E39.70009
G1 X33.365 Y175.153 E39.72154
G1 X34.563 Y172.961 E39.88771
G1 X34.725 Y172.679 E39.90934
G1 X36.005 Y170.553 E40.07442
G1 X36.176 Y170.281 E40.09579
G1 X37.535 Y168.221 E40.25995
G1 X37.719 Y167.955 E40.28147
G1 X39.178 Y165.931 E40.44744
G1 X39.37 Y165.675 E40.46873
G1 X40.894 Y163.734 E40.63289
G1 X41.1 Y163.483 E40.65449
G1 X42.72 Y161.588 E40.82033
G1 X42.932 Y161.349 E40.84158
G1 X44.614 Y159.537 E41.00604
G1 X44.841 Y159.303 E41.02772
G1 X46.591 Y157.569 E41.1916
G1 X46.824 Y157.348 E41.21297
G1 X48.673 Y155.661 E41.37946
G1 X48.917 Y155.447 E41.40105
G1 X50.823 Y153.848 E41.56655
G1 X51.074 Y153.647 E41.58794
G1 X53.034 Y152.136 E41.75256
G1 X53.292 Y151.945 E41.77392
G1 X55.315 Y150.514 E41.93875
G1 X55.584 Y150.332 E41.96036
G1 X57.694 Y148.968 E42.12749
G1 X57.971 Y148.797 E42.14914
G1 X60.097 Y147.545 E42.31326
G1 X60.376 Y147.388 E42.33456
G1 X62.524 Y146.239 E42.4966
G1 X62.807 Y146.095 E42.51773
G1 X65.069 Y145.001 E42.68487
G1 X65.489 Y144.813 E42.71548
G1 X69.69 Y143.079 E43.0178
G1 X70.144 Y142.908 E43.05007
G1 X72.857 Y141.981 E43.24079
G1 X73.147 Y141.888 E43.26104
G1 X81.361 Y139.435 E43.83129
G1 X86.238 Y137.644 E44.17689
G1 X91.03 Y135.571 E44.5242
G1 X95.69 Y133.233 E44.87101
G1 X100.196 Y130.643 E45.21674
G1 X104.581 Y127.783 E45.56499
G1 X108.773 Y124.696 E45.9113
G1 X112.792 Y121.37 E46.25832
G1 X116.652 Y117.789 E46.60856
G1 X118.46 Y115.964 E46.77945
G1 X120.203 Y114.102 E46.94911
G1 X123.623 Y110.121 E47.29823
G1 X126.803 Y105.965 E47.64633
G1 X129.732 Y101.654 E47.99303
G1 X132.404 Y97.196 E48.33877
G1 X134.838 Y92.562 E48.68696
G1 X137.024 Y87.757 E49.03811
G1 X137.94 Y85.497 E49.20032
G1 X139.724 Y80.487 E49.55409
G1 X141.88 Y73.173 E50.06131
G1 X141.973 Y72.88 E50.08176
G1 X142.752 Y70.576 E50.24355
G1 X142.86 Y70.275 E50.26482
G1 X143.756 Y67.944 E50.43094
G1 X143.879 Y67.645 E50.45245
G1 X144.865 Y65.367 E50.61757
M204 S5000
M205 X30 Y30
G0 F3000 X145.599 Y65.684
M204 S500
M205 X20 Y20
G1 F900 X145.784 Y65.292 E50.6464
G1 X148.027 Y60.882 E50.97552
G1 X148.234 Y60.503 E51.00425
G1 X149.486 Y58.377 E51.16837
G1 X149.639 Y58.129 E51.18775
G1 X151.003 Y56.019 E51.35488
G1 X151.167 Y55.777 E51.37433
G1 X152.598 Y53.754 E51.53916
G1 X152.769 Y53.523 E51.55828
G1 X154.279 Y51.564 E51.72282
G1 X154.46 Y51.338 E51.74208
G1 X156.06 Y49.431 E51.90767
G1 X156.252 Y49.212 E51.92704
G1 X157.939 Y47.363 E52.09354
G1 X158.139 Y47.153 E52.11283
G1 X159.873 Y45.404 E52.27666
G1 X160.079 Y45.204 E52.29576
G1 X161.89 Y43.521 E52.46021
G1 X162.108 Y43.327 E52.47963
G1 X164.004 Y41.707 E52.64552
G1 X164.228 Y41.523 E52.6648
G1 X166.169 Y39.999 E52.82896
G1 X166.399 Y39.826 E52.8481
G1 X168.422 Y38.368 E53.01398
G1 X168.662 Y38.203 E53.03336
G1 X170.723 Y36.844 E53.19758
G1 X170.963 Y36.692 E53.21647
G1 X173.089 Y35.411 E53.38158
G1 X173.346 Y35.264 E53.40128
G1 X175.537 Y34.067 E53.56736
G1 X175.791 Y33.935 E53.5864
G1 X178.012 Y32.837 E53.75121
G1 X178.277 Y32.713 E53.77067
G1 X180.56 Y31.701 E53.93679
G1 X180.85 Y31.58 E53.95769
G1 X183.535 Y30.531 E54.14944
G1 X183.824 Y30.425 E54.16992
G1 X186.13 Y29.639 E54.33198
G1 X186.407 Y29.551 E54.35132
G1 X188.82 Y28.839 E54.51867
G1 X189.104 Y28.762 E54.53825
G1 X191.517 Y28.159 E54.70369
G1 X191.917 Y28.071 E54.73094
G1 X196.418 Y27.222 E55.03563
G1 X196.824 Y27.158 E55.06297
G1 X199.254 Y26.846 E55.22594
G1 X199.539 Y26.815 E55.24501
G1 X202.025 Y26.599 E55.411
G1 X202.315 Y26.58 E55.43033
G1 X204.796 Y26.468 E55.59554
G1 X205.086 Y26.461 E55.61483
G1 X207.541 Y26.452 E55.77814
G1 X207.828 Y26.457 E55.79724
G1 X210.294 Y26.549 E55.96139
G1 X210.581 Y26.566 E55.98052
G1 X213.05 Y26.76 E56.14526
G1 X213.342 Y26.789 E56.16478
G1 X215.84 Y27.091 E56.33216
G1 X216.124 Y27.131 E56.35124
G1 X218.545 Y27.525 E56.5144
G1 X218.829 Y27.577 E56.53361
G1 X221.255 Y28.075 E56.69835
G1 X221.56 Y28.145 E56.71916
G1 X224.353 Y28.85 E56.91078
G1 X224.657 Y28.934 E56.93176
G1 X227.09 Y29.666 E57.10077
G1 X227.503 Y29.804 E57.12974
G1 X232.099 Y31.505 E57.45573
G1 X232.5 Y31.668 E57.48453
G1 X234.795 Y32.683 E57.65146
G1 X235.059 Y32.807 E57.67086
G1 X237.28 Y33.902 E57.83558
G1 X237.533 Y34.032 E57.8545
G1 X239.698 Y35.211 E58.01849
G1 X239.953 Y35.357 E58.03803
G1 X242.112 Y36.653 E58.20554
G1 X242.357 Y36.808 E58.22482
G1 X244.425 Y38.169 E58.38951
G1 X244.662 Y38.332 E58.40864
G1 X246.66 Y39.768 E58.57231
G1 X246.892 Y39.942 E58.59161
G1 X248.854 Y41.479 E58.7574
G1 X249.078 Y41.662 E58.77664
G1 X250.95 Y43.258 E58.94028
G1 X251.165 Y43.449 E58.95941
G1 X252.99 Y45.139 E59.12486
G1 X253.286 Y45.429 E59.15243
G1 X256.467 Y48.745 E59.45809
G1 X256.743 Y49.051 E59.48551
G1 X258.337 Y50.922 E59.64901
G1 X258.518 Y51.143 E59.66801
G1 X260.057 Y53.106 E59.83394
G1 X260.232 Y53.34 E59.85338
G1 X261.668 Y55.338 E60.01705
G1 X261.83 Y55.573 E60.03604
G1 X263.191 Y57.64 E60.20066
G1 X263.347 Y57.889 E60.22021
G1 X264.643 Y60.049 E60.38777
G1 X264.789 Y60.302 E60.4072
G1 X265.968 Y62.467 E60.57119
G1 X266.108 Y62.739 E60.59154
G1 X267.358 Y65.294 E60.78075
G1 X267.537 Y65.692 E60.80978
G1 X269.297 Y69.942 E61.11577
G1 X269.442 Y70.323 E61.14289
G1 X270.243 Y72.629 E61.30527
G1 X270.334 Y72.91 E61.32492
G1 X271.066 Y75.344 E61.494
G1 X271.144 Y75.623 E61.51327
G1 X271.751 Y77.992 E61.67594
G1 X271.822 Y78.296 E61.69671
G1 X272.418 Y81.146 E61.89039
G1 X272.475 Y81.454 E61.91123
G1 X272.869 Y83.873 E62.07426
